X: 30800
T: Other High, The
R: reel
M: 4/4
K: Dmajor
|:f3d ecAG|FEFG Ad=cA|G2 FG Add2|fded cdeg|
f2 fd ecAG|FEFG Ad=cA|G2 FG Addc|A2GE FD D2:|
|:a2 fa dafa|a2 fa dafa|b2 gb efgb|efgb efgb|
a2 fa dafa|a2 fa dafa|bggf gedB|ABAG FD D2:|

